app/dist/common/images/vita-34-ag.svg

<svg height="18" viewBox="0 0 18 18" width="18" xmlns="http://www.w3.org/2000/svg"><path d="m0 0h18v18h-18z" fill="#f0f3fa"/><path d="m4.5 10.37-1.34-4.37h-1.16l2.02 6h.93l2.05-6v1h2.64l-1.57 1.4.66.78c.1-.04.27-.1.54-.1.48 0 1.1.29 1.1.95 0 .52-.49.97-1.17.97-.63 0-1.05-.45-1.07-1.11l-1.13.21c.07.95.9 1.9 2.2 1.9 1.13 0 1.85-.73 2.06-1.5h2.74v1.5h1v-1.5h1v-1h-1v-3.5h-1.63l-2.17 3.34a1.7 1.7 0 0 0 -1.56-1.04l1.36-1.36v-.94h-5.1zm7.8-.87h1.7v-2.37z" fill="#292929" fill-rule="evenodd"/></svg>

<!-- by TradingView --><svg width="18" height="18" viewBox="0 0 18 18" xmlns="http://www.w3.org/2000/svg"><path fill="#F0F3FA" d="M0 0h18v18H0z"/><path fill-rule="evenodd" d="M4.5 10.37 3.16 6H2l2.02 6h.93L7 6v1h2.64L8.07 8.4l.66.78c.1-.04.27-.1.54-.1.48 0 1.1.29 1.1.95 0 .52-.49.97-1.17.97-.63 0-1.05-.45-1.07-1.11L7 10.1c.07.95.9 1.9 2.2 1.9 1.13 0 1.85-.73 2.06-1.5H14V12h1v-1.5h1v-1h-1V6h-1.63L11.2 9.34A1.7 1.7 0 0 0 9.64 8.3L11 6.94V6H5.9l-1.4 4.37Zm7.8-.87H14V7.13L12.3 9.5Z" fill="#292929"/></svg>
